X:1
T:Sonata G-major
T:Sonata G-major 
T: HWV 363b op.1 no.5
T:G. F. Handel
T:for flute and basso
T:ZN 2019.
T:ZN 2019.
C:G. F. Handel
Z:for flute and basso
Z:ZN 2019.
L:1/8
Q:1/4=71
M:4/4
K:G
V:1 alto nm="Violoncello" snm="Vc."
V:1
"^Adagio" G,A,B,C DCDD, | G,G,F,D, z DB,F, | G,D,B,G, z G,E,B, | C,D,E,F, G,G,CC | %4
 B,G,DD, G,A,B,C | DF,G,G, D,E,F,D, | B,2 z ^C DD, G,2 | F,G,A,A, D,G,F,G, | D,DA,B, F,G,^D,E, | %9
 B,A,E,F, B,G,F,E, | A,A,DF, G,B,CE, | F,A,^D,^D E=DCB, | A,G, C2 B,E,B,B, | E,2 z A, D,2 z G, | %14
 C8 | B,8 |][Q:1/4=144]"^Allegro" z8 | z8 | z8 | z8 | z G,/G,/ G,G, F,D,D,B, | A,D,D,D ^CA,A,F | %22
 EA, z/ D/^C/D/ B,/D/C/D/ A,/D/C/D/ | G,/D/^C/D/ F,/D/C/D/ E,D ED/C/ | DD, z D DC z C | %25
 CB, z B, A,G,F,D, | G,A,/B,/ C/A,/B,/C/ F,G,/A,/ B,/G,/A,/B,/ | E,F,/G,/ A,/F,/G,/A,/ D,DEC | %28
 DCDD, G,/G/F/G/ C/G/F/G/ | B,/G/F/G/ A,/G/F/G/ G,/G/F/G/ C/G/F/G/ | %30
 B,/G/F/G/ A,/G/F/G/ G,/G/F/G/ C/G/F/G/ | B,/G,/F,/G,/ E,/^C/B,/C/ D,/D/C/D/ G,/D/C/D/ | %32
 F,/D/^C/D/ E,/D/C/D/ D,/D/C/D/ F,D | G,A,B,G, A,E/D/ ^C/B,/A,/G,/ | F,A,DF, G,D/^C/ B,/A,/G,/F,/ | %35
 E,F,G,E, ^C,A,/A,/ A,A, | FD z2 z D/^C/ B,/C/D/E/ | %37
 F,/G,/F,/E,/ D,/E,/F,/G,/ A,/B,/A,/G,/ F,/G,/A,/B,/ | ^C/A,/B,/C/ DF, G, z F, z | %39
 B, z A, z G,F,G,A, | D,D/D/ DD B,G, z2 | z G,/G,/ G,G, E,C, z2 | %42
 z C/B,/ A,/B,/C/A,/ DD/C/ B,/C/D/B,/ | CA, z2 z B,/A,/ G,/F,/E,/F,/ | %44
 ^D/B,/^C/D/ E/F/G/A/ B/e/^d/e/ A/e/d/e/ | G,/E/^D/E/ F,/E/D/E/ E,/B,/A,/B,/ =D,/B,/A,/B,/ | %46
 C,2 z C ^D,B,E,A, | B,A,B,B, E,2 z E | ^C/E/D/E/ A,/E/D/E/ F,2 z D | %49
 B,/D/^C/D/ G,/B,/A,/B,/ ^C,2 z E, | F,2 z2 z B,/B,/ B,B, | ^A,D/D/ DD E,2 z E | %52
 ^A,B,F,F, B,2 z B,/=A,/ | ^G,E,F,G, A,2 z A,/=G,/ | F,D,E,F, G,G, z G, | A,A, z A, B,B, z B, | %56
 CC, z A, D2 z2 | z E/E/ EE A,2 z2 | z B,/C/ D/B,/C/D/ G,2 z2 | %59
 z C/D/ E/D/C/B,/ A,/B,/C/B,/ A,/G,/F,/E,/ | D/G/F/E/ D/C/B,/A,/ G,G/G/ GG | %61
 G,D,D,B, A,D, z/ D/C/D/ | D,/C/B,/C/ D,/B,/A,/B,/ C,CB,G, | EE,D,D CA,DC | B,G,CB, A,F,B,G, | %65
 E,C, z C DB,EC | DCDD, G,2 z G, | CDEC DB,EC | DCDD, G,2 z2 |] %69

